build/images/icons/check.svg

<svg width="16" height="16" viewBox="0 0 16 16" fill="none" xmlns="http://www.w3.org/2000/svg">
  <path opacity="0.5" d="M14.2222 0H1.77778C0.8 0 0 0.8 0 1.77778V14.2222C0 15.2 0.8 16 1.77778 16H14.2222C15.2 16 16 15.2 16 14.2222V1.77778C16 0.8 15.2 0 14.2222 0ZM6.22222 12.4444L1.77778 8.17094L3.02222 6.97436L6.22222 10.0513L12.9778 3.55556L14.2222 4.75214L6.22222 12.4444Z" fill="#00BBD3"/>
</svg>

<svg width="16" height="16" fill="none" xmlns="http://www.w3.org/2000/svg"><path opacity=".5" d="M14.222 0H1.778C.8 0 0 .8 0 1.778v12.444C0 15.2.8 16 1.778 16h12.444C15.2 16 16 15.2 16 14.222V1.778C16 .8 15.2 0 14.222 0zm-8 12.444L1.778 8.171l1.244-1.197 3.2 3.077 6.756-6.495 1.244 1.196-8 7.692z" fill="#00BBD3"/></svg>
